X:1
T:Title
%%score 1 2 3 4
L:1/8
M:4/2
K:C
V:1 treble nm="Part_1"
V:2 treble-8 nm="Part_2"
V:3 treble-8 nm="Part_3"
V:4 treble-8 nm="Part_4"
V:1
 c16 | A8 d8- | d8 c4 B4 | A16 | G8 c8- | c4 A4 c8 | B8 G8 | A16 | z8 d8- | d4 e4 f8 | e12 d2 e2 | %11
 f8 d8- | d8 c4 B4 | A16 | G6 A2 B4 c4- | c4 A8 F4- | F4 E4 E4 D4 | F16 | (A8 d8-) | d4 c4 A4 B4 | %20
 c4 d4 e8 | d4 e4 f8- | f4 e4 d8 | (c8 d8) | e12 d2 c2 | B16 | A16 | z8 c8- | c4 B4 A8- | %29
 A4 G4 F8 | (E8 G8-) | G4 A4 B8 | (A8 F8-) | F4 E4 E4 D4 | F16 :| z8 c8- | c8 c8- | c8 A8- | %38
 A4 G4 G8- | G8 c8- | c8 B8 | c16 | z8 c8- | c4 B4 A8- | A4 G4 G8- | G8 F8 | (G8 d8-) | d4 c4 B8 | %48
 A16 | z8 c8- | c4 d4 e8- | e4 c4 c8- | c8 B8 | c16 | z8 c8- | c4 B4 A8- | A4 G4 G8- | G8 F8 | %58
 G4 A4 B8 | A8 c8- | c4 A4 A8- | A8 G8 | (A8 c8) | B4 c4 d8 | (c8 A8-) | A4 G4 c8- | c4 B4 A8- | %67
 A4 G4 F8- | F8 E8 | E16 | F16 |] %71
V:2
[K:F] e16 | f16- | f8 e4 d4 | (c8 (d8) | e16) | c8 f8- | f4 e4 e4 d4 | f16- | f16 | z8 f8 | g16 | %11
 f8 a8- | a4 g4 f8- | f4 e4 c4 d4 | e16 | (c8 (B8) | c16-) | c16 | f16 | d16 | e4 f4 g8 | f16- | %22
 f8 a8- | a8 f8 | g12 f4 | (d8 e8) | f12 e4 | c16 | f16- | f16 | (g8 e8) | d12 e4 | f8 c8- | c16 | %34
 c16- :| c16 | c8 f8- | f4 e4 c8 | (f8 e8-) | e4 f4 g8 | g12 f4 | e4 d4 e8 | f12 e2 d2 | c8 f8 | %44
 d16- | d16 | g12 f4 | (d8 (e8) | f16-) | f16 | g8 e8- | e4 f4 g8- | g4 f4 d8 | e4 f4 g4 f2 g2 | %54
 a12 f4 | f16 | d16- | d16 | d12 e4 | f16- | f16 | z8 d8 | c4 d4 e4 f4 | g16 | (e8 f8-) | %65
 f4 g4 e8 | f6 e2 c8 | d4 A4 B8 | c16- | c16 | c16 |] %71
V:3
 C16 | D16 | F16- | F16 | E16 | F16 | F16 | F16 | D16- | D16 | C16 | D16 | F16- | F16 | E16 | F16 | %16
 G16 | F16 | D16- | D16 | C16 | D16 | F16- | F16 | E16 | G16 | F16- | F16 | F16 | A16 | c16 | G16 | %32
 A16 | G16 | F16- :| F16 | F16 | A16 | c16 | c16 | d16 | c16 | A16- | A16 | _B16 | A16 | G16- | %47
 G16 | F16 | A16 | c16- | c16 | d16 | c16 | A16- | A16 | B16 | A16 | G16 | A16 | F16 | B16 | A16 | %63
 G16 | c16 | A16 | F16 | F16 | G16 | G16 | F16 |] %71
V:4
[K:F] G16 | F8 D8- | D4 E4 F4 G4 | (A8 F8) | C16 | (c8 (A8) | B16) | c16 | d12 c4 | (A8 B8) | %10
 (c8 e8) | d12 c2 B2 | A16- | A8 F8 | C8 z8 | (F8 (D8) | C16) | z8 (c8 | d12) c4 | (A8 F8) | %20
 (G8 (c8) | A16) | D12 E4 | (F8 (D8) | C16) | G8 G8 | (A8 F8) | A12 B4 | c16 | F8 D8 | C16 | %31
 (G8 E8) | F16 | C16 | F16 :| z16 | A16 | F16- | F8 C8- | C16 | G16 | A16 | F16- | F16 | z8 G8 | %45
 D16 | d12 c4 | B4 A4 B8 | (c8 (A8) | F16) | C16- | C16 | G16 | C16 | F16- | F16 | G16 | D16 | %58
 z8 G8 | F16 | c16 | d16 | (e8 c8) | (d8 B8) | (c8 F8-) | F4 E4 C8 | F16 | D16 | C16- | C16 | %70
 F16 |] %71

